static/logo-teleport.svg

<svg width="179" height="35" viewBox="0 0 179 35" fill="none" xmlns="http://www.w3.org/2000/svg">
<path d="M18.36 14.2165V7.6165H12.52V0.416502H4.72V7.6165H0.08V14.2165H4.72V20.6165C4.72 25.6165 7.2 28.6165 13.72 28.6165H18.36V21.6565H15.2C13.56 21.6565 12.52 21.1365 12.52 19.1765V14.2165H18.36ZM28.5059 20.1765H43.6259C44.3059 11.9765 39.8259 7.0165 32.2659 7.0165C24.8259 7.0165 20.5859 11.7365 20.5859 18.0165C20.5859 24.2565 24.6259 29.0165 32.1859 29.0165C39.2659 29.0165 42.9459 24.8165 43.1859 21.4965H35.7859C35.4659 22.5365 34.2659 23.0965 32.5459 23.0965C30.1459 23.0965 28.9459 22.0565 28.5059 20.1765ZM28.4659 15.5765C28.9459 13.5765 30.1059 12.6965 32.2659 12.6965C34.2259 12.6965 35.3459 13.4565 35.9059 15.5765H28.4659ZM46.7031 28.4165H54.5031V0.0165024H46.7031V28.4165ZM65.42 20.1765H80.54C81.22 11.9765 76.74 7.0165 69.18 7.0165C61.74 7.0165 57.5 11.7365 57.5 18.0165C57.5 24.2565 61.54 29.0165 69.1 29.0165C76.18 29.0165 79.86 24.8165 80.1 21.4965H72.7C72.38 22.5365 71.18 23.0965 69.46 23.0965C67.06 23.0965 65.86 22.0565 65.42 20.1765ZM65.38 15.5765C65.86 13.5765 67.02 12.6965 69.18 12.6965C71.14 12.6965 72.26 13.4565 72.82 15.5765H65.38ZM97.4972 7.0965C94.8572 7.0965 92.4172 7.9765 90.1372 11.4565V11.4165L91.4172 9.2965L91.2972 7.6165H83.6172V34.1765H91.4172V26.4565C93.0572 28.4565 95.2572 29.0165 97.4972 29.0165C103.657 29.0165 107.537 24.0565 107.537 18.0165C107.537 12.0165 103.657 7.0965 97.4972 7.0965ZM95.5772 22.2165C92.9772 22.2165 91.3372 20.4565 91.3372 18.0165C91.3372 15.5765 92.9772 13.8165 95.5772 13.8165C98.1372 13.8165 99.7772 15.5765 99.7772 18.0165C99.7772 20.4565 98.1372 22.2165 95.5772 22.2165ZM121.72 29.0165C129.16 29.0165 133.48 24.2165 133.48 18.0165C133.48 11.8165 129.16 7.0165 121.72 7.0165C114.4 7.0165 110 11.8165 110 18.0165C110 24.2165 114.36 29.0165 121.72 29.0165ZM121.72 22.0965C119.16 22.0965 117.68 20.3765 117.68 18.0165C117.68 15.6965 119.16 13.9365 121.72 13.9365C124.32 13.9365 125.8 15.6965 125.8 18.0165C125.8 20.3365 124.32 22.0965 121.72 22.0965ZM150.469 7.0165C146.509 7.0165 144.789 9.2165 143.469 11.8965L144.269 10.0965L143.989 7.6165H136.469V28.4165H144.269V17.6165C144.269 15.7765 144.869 13.8165 147.549 13.8165C150.269 13.8165 150.629 15.7765 150.629 17.5765V18.0965H157.909V16.2565C157.909 10.7765 155.629 7.0165 150.469 7.0165ZM178.673 14.2165V7.6165H172.833V0.416502H165.033V7.6165H160.393V14.2165H165.033V20.6165C165.033 25.6165 167.513 28.6165 174.033 28.6165H178.673V21.6565H175.513C173.873 21.6565 172.833 21.1365 172.833 19.1765V14.2165H178.673Z" fill="#FF6E5F"/>
</svg>

<svg fill="none" height="35" viewBox="0 0 179 35" width="179" xmlns="http://www.w3.org/2000/svg"><path d="m18.36 14.2165v-6.6h-5.84v-7.199998h-7.8v7.199998h-4.64v6.6h4.64v6.4c0 5 2.48 8 9 8h4.64v-6.96h-3.16c-1.64 0-2.68-.52-2.68-2.48v-4.96zm10.1459 5.96h15.12c.68-8.2-3.8-13.16-11.36-13.16-7.44 0-11.68 4.72-11.68 11 0 6.24 4.04 11 11.6 11 7.08 0 10.76-4.2 11-7.52h-7.4c-.32 1.04-1.52 1.6-3.24 1.6-2.4 0-3.6-1.04-4.04-2.92zm-.04-4.6c.48-2 1.64-2.88 3.8-2.88 1.96 0 3.08.76 3.64 2.88zm18.2372 12.84h7.8v-28.3999976h-7.8zm18.7169-8.24h15.12c.68-8.2-3.8-13.16-11.36-13.16-7.44 0-11.68 4.72-11.68 11 0 6.24 4.04 11 11.6 11 7.08 0 10.76-4.2 11-7.52h-7.4c-.32 1.04-1.52 1.6-3.24 1.6-2.4 0-3.6-1.04-4.04-2.92zm-.04-4.6c.48-2 1.64-2.88 3.8-2.88 1.96 0 3.08.76 3.64 2.88zm32.1172-8.48c-2.64 0-5.08.88-7.36 4.36v-.04l1.28-2.12-.12-1.68h-7.68v26.56h7.8v-7.72c1.64 2 3.84 2.56 6.08 2.56 6.1598 0 10.0398-4.96 10.0398-11 0-6-3.88-10.92-10.0398-10.92zm-1.92 15.12c-2.6 0-4.24-1.76-4.24-4.2s1.64-4.2 4.24-4.2c2.56 0 4.2 1.76 4.2 4.2s-1.64 4.2-4.2 4.2zm26.1428 6.8c7.44 0 11.76-4.8 11.76-11s-4.32-11-11.76-11c-7.32 0-11.72 4.8-11.72 11s4.36 11 11.72 11zm0-6.92c-2.56 0-4.04-1.72-4.04-4.08 0-2.32 1.48-4.08 4.04-4.08 2.6 0 4.08 1.76 4.08 4.08s-1.48 4.08-4.08 4.08zm28.749-15.08c-3.96 0-5.68 2.2-7 4.88l.8-1.8-.28-2.48h-7.52v20.8h7.8v-10.8c0-1.84.6-3.8 3.28-3.8 2.72 0 3.08 1.96 3.08 3.76v.52h7.28v-1.84c0-5.48-2.28-9.24-7.44-9.24zm28.204 7.2v-6.6h-5.84v-7.199998h-7.8v7.199998h-4.64v6.6h4.64v6.4c0 5 2.48 8 9 8h4.64v-6.96h-3.16c-1.64 0-2.68-.52-2.68-2.48v-4.96z" fill="#ff6e5f"/></svg>
